X: 21
T:Morris Off, CJS(MSS) & JG See above, Shakespeare MM version
M:4/4
L:1/8
S:Bacon (CJS (MSS) \& JG)
A:Bidford
P:A8
K:DMix
P:A
z2|DCDE DCDE|D2B,CD4|B,A,B,A, G,B,A,G,|F,2E,F, D,4|
B,A,B,A, G,2A,2|B,A,B,A, G,2A,2|B,A,B,A, G,B,A,G,|F,2E,F, D,4||
